svg/account_lock_open.svg

<svg xmlns="http://www.w3.org/2000/svg" viewBox="0 0 24 24"><path d="M6 8c0-2.21 1.79-4 4-4s4 1.79 4 4-1.79 4-4 4-4-1.79-4-4m6 10.2c0-.96.5-1.86 1.2-2.46V14.5c0-.05.02-.11.02-.16-.99-.22-2.07-.34-3.22-.34-4.42 0-8 1.79-8 4v2h10zm10 .1v3.5c0 .6-.6 1.2-1.3 1.2h-5.5c-.6 0-1.2-.6-1.2-1.3v-3.5c0-.6.6-1.2 1.2-1.2v-2.5c0-1.4 1.4-2.5 2.8-2.5s2.8 1.1 2.8 2.5v.5h-1.3v-.5c0-.8-.7-1.3-1.5-1.3s-1.5.5-1.5 1.3V17h4.3c.6 0 1.2.6 1.2 1.3"/></svg>

<svg xmlns="http://www.w3.org/2000/svg" id="mdi-account-lock-open" viewBox="0 0 24 24"><path d="M6 8C6 5.79 7.79 4 10 4S14 5.79 14 8 12.21 12 10 12 6 10.21 6 8M12 18.2C12 17.24 12.5 16.34 13.2 15.74V14.5C13.2 14.45 13.22 14.39 13.22 14.34C12.23 14.12 11.15 14 10 14C5.58 14 2 15.79 2 18V20H12V18.2M22 18.3V21.8C22 22.4 21.4 23 20.7 23H15.2C14.6 23 14 22.4 14 21.7V18.2C14 17.6 14.6 17 15.2 17V14.5C15.2 13.1 16.6 12 18 12S20.8 13.1 20.8 14.5V15H19.5V14.5C19.5 13.7 18.8 13.2 18 13.2S16.5 13.7 16.5 14.5V17H20.8C21.4 17 22 17.6 22 18.3Z" /></svg>
